lib/logo_tmp/nrk-logo-nrk-p1-pluss.svg

<svg width="64" height="24" viewBox="0 0 64 24" fill="none" xmlns="http://www.w3.org/2000/svg">
<path d="M6.10352e-05 17.998V5.99914H3.93725V17.998H6.10352e-05ZM9.29387 7.90883L11.5581 17.998H7.24923L4.54555 5.99914H6.96224C7.51641 5.99194 8.05412 6.1873 8.47456 6.54844C8.89568 6.89443 9.18501 7.37474 9.29387 7.90883ZM12.1496 17.998V5.99914H16.0868V17.998H12.1496ZM19.0605 10.5621C18.6363 10.5663 18.2188 10.4553 17.8526 10.241C17.4913 10.0322 17.1912 9.73201 16.9823 9.37065C16.7678 9.00438 16.6568 8.58681 16.661 8.16236C16.6562 7.74051 16.7673 7.32543 16.9823 6.96247C17.1934 6.60504 17.4932 6.30814 17.8526 6.10057C18.2189 5.88655 18.6363 5.77556 19.0605 5.77943C19.4823 5.77489 19.8972 5.88598 20.2603 6.10057C20.6161 6.30996 20.9127 6.60661 21.1221 6.96247C21.3369 7.32553 21.448 7.74054 21.4434 8.16236C21.4473 8.58677 21.3363 9.00427 21.1221 9.37065C20.9149 9.73042 20.618 10.0303 20.2603 10.241C19.8972 10.456 19.4819 10.5671 19.06 10.5621H19.0605ZM22.0517 17.998V5.99914H25.9892V17.998H22.0517ZM30.9738 12.5563C30.9849 12.5679 31.0693 12.7059 31.2272 12.9703C31.3851 13.2347 31.5907 13.5727 31.844 13.9843C32.0975 14.3958 32.3649 14.8323 32.6464 15.294C32.9278 15.7558 33.1927 16.1924 33.4409 16.6038C33.6882 17.0152 33.9698 17.48 34.2858 17.998H29.9599C29.6893 17.5587 29.4442 17.1615 29.2245 16.8066C29.0049 16.4517 28.7714 16.0686 28.5239 15.6574C28.2759 15.2465 28.0307 14.8466 27.7883 14.4575C27.5459 14.0684 27.3376 13.7277 27.1633 13.4351C26.9883 13.1424 26.8671 12.9452 26.7997 12.8436C26.6326 12.5915 26.5337 12.3003 26.5127 11.9986C26.5295 11.709 26.6227 11.429 26.7828 11.1872C26.8504 11.0745 26.9743 10.8745 27.1546 10.5872C27.3348 10.2999 27.5461 9.9591 27.7883 9.56477C28.0305 9.17044 28.2757 8.76765 28.5239 8.35642C28.7721 7.94519 29.0056 7.55928 29.2245 7.19875C29.4446 6.8386 29.6897 6.43863 29.9599 5.99886H34.2858L30.9397 11.4575C30.8361 11.6196 30.7778 11.8064 30.7707 11.9986C30.7818 12.2004 30.8523 12.3944 30.9732 12.5563H30.9738Z" fill="white"/>
<path d="M47.1348 7.55317C46.9273 7.23269 46.661 6.95458 46.35 6.73356C46.0033 6.49046 45.6181 6.30762 45.2108 6.19275C44.7162 6.05606 44.2048 5.99073 43.6919 5.9987H39V17.9975H40.7721V13.6881H43.8269C44.5163 13.6987 45.1968 13.5298 45.8015 13.198C46.381 12.8766 46.8623 12.4034 47.1938 11.8291C47.5491 11.1953 47.727 10.4773 47.7086 9.7507C47.7101 9.35792 47.6647 8.96637 47.5736 8.58434C47.4858 8.2185 47.3375 7.86995 47.1348 7.55317ZM45.5652 11.1951C45.3383 11.5514 45.0045 11.8266 44.6117 11.9812C44.1348 12.1617 43.6274 12.2478 43.1177 12.2347H40.7721V7.46897H43.3543C43.8476 7.45023 44.3384 7.54565 44.7888 7.74781C45.1471 7.92128 45.4401 8.20573 45.6242 8.559C45.8193 8.95531 45.9149 9.39328 45.9027 9.83494C45.922 10.3113 45.8049 10.7832 45.5652 11.1951Z" fill="white"/>
<path d="M51.3115 6.3958C51.0696 6.52536 50.8334 6.6464 50.6029 6.75888C50.3725 6.87136 50.139 6.98401 49.9025 7.09686C49.6662 7.20952 49.4244 7.31123 49.1769 7.40108C48.9293 7.49093 48.6646 7.58161 48.3834 7.67146L48.7549 9.10793C49.0925 9.00654 49.399 8.90515 49.6745 8.80375C49.9445 8.70494 50.2093 8.5921 50.4676 8.46574C50.7212 8.34218 50.9743 8.20709 51.2271 8.06043L51.2355 8.05538V17.998H52.9905V5.99923H52.0794C51.8092 6.13386 51.5532 6.26605 51.3115 6.3958Z" fill="white"/>
<path d="M59.8597 11.3387V7.92526H58.3745V11.3387H54.9485V12.6738H58.3745V16.071H59.8597V12.6738H63.2857V11.3387H59.8597Z" fill="white"/>
</svg>

<svg xmlns="http://www.w3.org/2000/svg" viewBox="0 0 64 24"><path fill="#fff" d="M0 17.998V5.999h3.937v11.999H0Zm9.294-10.09 2.264 10.09H7.25L4.546 5.999h2.416a2.276 2.276 0 0 1 1.513.55c.42.345.71.826.819 1.36Zm2.856 10.09V5.999h3.937v11.999H12.15Zm6.91-7.436a2.382 2.382 0 0 1-2.4-2.4 2.303 2.303 0 0 1 .322-1.2 2.412 2.412 0 0 1 3.278-.861c.356.209.653.506.862.861.215.364.326.779.321 1.2a2.4 2.4 0 0 1-1.183 2.079 2.303 2.303 0 0 1-1.2.321Zm2.992 7.436V5.999h3.937v11.999h-3.937Zm8.922-5.442c.01.012.095.15.253.414.158.265.364.603.617 1.014a334.427 334.427 0 0 1 1.597 2.62c.247.411.529.876.845 1.394H29.96c-.27-.44-.516-.837-.736-1.191-.22-.355-.453-.738-.7-1.15-.248-.41-.493-.81-.736-1.2-.242-.389-.45-.73-.625-1.022a18.04 18.04 0 0 0-.363-.591 1.75 1.75 0 0 1-.287-.845c.016-.29.11-.57.27-.812.067-.112.191-.313.372-.6a182.106 182.106 0 0 0 1.37-2.23c.247-.412.48-.798.7-1.158l.735-1.2h4.326l-3.346 5.458a1.079 1.079 0 0 0-.17.542c.012.201.082.395.203.557ZM47.135 7.553a3.017 3.017 0 0 0-.785-.82 3.764 3.764 0 0 0-1.14-.54 5.387 5.387 0 0 0-1.518-.194H39v11.998h1.772v-4.309h3.055c.69.01 1.37-.158 1.974-.49a3.654 3.654 0 0 0 1.393-1.369 4.041 4.041 0 0 0 .515-2.078 4.947 4.947 0 0 0-.135-1.167 3.374 3.374 0 0 0-.44-1.03Zm-1.57 3.642c-.227.356-.56.632-.953.786-.477.18-.985.267-1.494.254h-2.346V7.469h2.582c.494-.019.984.077 1.435.279.358.173.651.458.835.811.195.396.29.834.279 1.276.019.476-.098.948-.338 1.36ZM51.312 6.396c-.242.13-.479.25-.71.363-.23.112-.463.225-.7.338a8.14 8.14 0 0 1-.725.304 21.6 21.6 0 0 1-.794.27l.372 1.437c.337-.101.644-.203.92-.304.27-.1.534-.212.793-.338.253-.124.506-.259.76-.406l.008-.005v9.943h1.755V5.999h-.912c-.27.135-.526.267-.767.397ZM59.86 11.339V7.925h-1.486v3.414H54.95v1.335h3.425v3.397h1.486v-3.397h3.426v-1.335H59.86Z"/></svg>
